upholstery/frontseat_back.blend_page8.svg

<?xml version="1.0" encoding="UTF-8" standalone="no"?>
<svg
   version="1.1"
   width="300.00mm"
   height="600.00mm"
   viewBox="0 0 300.00 600.00"
   id="svg940"
   sodipodi:docname="frontseat_back.blend_page8.svg"
   inkscape:version="1.1.1 (c3084ef, 2021-09-22)"
   xmlns:inkscape="http://www.inkscape.org/namespaces/inkscape"
   xmlns:sodipodi="http://sodipodi.sourceforge.net/DTD/sodipodi-0.dtd"
   xmlns="http://www.w3.org/2000/svg"
   xmlns:svg="http://www.w3.org/2000/svg">
  <defs
     id="defs944" />
  <sodipodi:namedview
     id="namedview942"
     pagecolor="#ffffff"
     bordercolor="#666666"
     borderopacity="1.0"
     inkscape:pageshadow="2"
     inkscape:pageopacity="0.0"
     inkscape:pagecheckerboard="0"
     inkscape:document-units="mm"
     showgrid="false"
     inkscape:zoom="0.35057292"
     inkscape:cx="566.21602"
     inkscape:cy="1133.8583"
     inkscape:window-width="1792"
     inkscape:window-height="975"
     inkscape:window-x="0"
     inkscape:window-y="25"
     inkscape:window-maximized="1"
     inkscape:current-layer="svg940" />
  <style
     type="text/css"
     id="style824">
    path {
        fill: none;
        stroke-linecap: butt;
        stroke-linejoin: bevel;
        stroke-dasharray: none;
    }
    path.outer {
        stroke: #000000;
        stroke-dasharray: none;
        stroke-dashoffset: 0;
        stroke-width: 0.3;
        stroke-opacity: 1.0;
    }
    path.convex {
        stroke: #000000;
        stroke-dasharray: 0.50,1.00;
        stroke-dashoffset:0;
        stroke-width:0.2;
        stroke-opacity: 1.0
    }
    path.concave {
        stroke: #000000;
        stroke-dasharray: 1.00,0.50,0.20,0.50;
        stroke-dashoffset: 0;
        stroke-width: 0.2;
        stroke-opacity: 1.0
    }
    path.freestyle {
        stroke: #000000;
        stroke-dasharray: none;
        stroke-dashoffset: 0;
        stroke-width: 0.2;
        stroke-opacity: 1.0
    }
    path.outer_background {
        stroke: #ffffff;
        stroke-opacity: 1.0;
        stroke-width: 0.5
    }
    path.inner_background {
        stroke: #ffffff;
        stroke-opacity: 1.0;
        stroke-width: 0.2
    }
    path.sticker {
        fill: #e5e5e5;
        stroke: none;
        fill-opacity: 1.0;
    }
    path.arrow {
        fill: #000000;
    }
    text {
        font-style: normal;
        fill: #000000;
        fill-opacity: 1.0;
        stroke: none;
    }
    text, tspan {
        text-anchor:middle;
    }
    </style>
  <path
     class="sticker"
     d="m 190.64562,193.94207 1.16927,-2.43253 4.82359,2.22599 -1.09225,2.46809 z M 14.013966,576.69098 5,572.35817 l 40.679276,-88.1492 9.145602,4.04751 z m 129.126724,-279.80895 -9.01396,-4.33278 47.37328,-102.6547 9.14561,4.04752 z m -44.157889,95.68722 -9.013966,-4.33279 44.026255,-95.40194 9.1456,4.04751 z m -44.157923,95.68723 -9.01395,-4.3328 44.026255,-95.40194 9.145618,4.04751 z m 93.216392,-189.11287 9.01398,4.33278 -44.02626,95.40191 -9.14561,-4.04751 z m -44.15789,95.68718 9.01395,4.33281 -44.026244,95.40193 -9.145603,-4.04752 z m -44.157897,95.68722 9.013966,4.3328 -40.679291,88.14922 -9.145603,-4.04753 z m 135.820747,-294.31439 9.01392,4.3328 -47.37329,102.6547 -9.14559,-4.04751 z M 18.914555,578.9525 l -1.169264,2.43254 -4.823595,-2.22601 1.09227,-2.46805 z"
     id="path830" />
  <path
     class="outer"
     d="m 191.81489,191.50954 4.82359,2.22599 -1.09225,2.46809 9.01392,4.3328 -47.37329,102.6547 -9.14559,-4.04751 9.01398,4.33278 -44.02626,95.40191 -9.14561,-4.04751 9.01395,4.33281 -44.026244,95.40193 -9.145603,-4.04752 9.013966,4.3328 -40.679291,88.14922 -9.145603,-4.04753 -1.169264,2.43254 -4.823595,-2.22601 1.09227,-2.46805 L 5,572.35817 l 40.679276,-88.1492 9.145602,4.04751 -9.01395,-4.3328 44.026255,-95.40194 9.145618,4.04751 -9.013966,-4.33279 44.026255,-95.40194 9.1456,4.04751 -9.01396,-4.33278 47.37328,-102.6547 9.14561,4.04752 z"
     id="path832" />
  <g
     id="g840">
    <path
       transform="matrix(9.079796,4.190144,-4.190144,9.079796,193.09591,195.07282)"
       class="arrow"
       d="M 0,0 1,1 0,0.25 -1,1 Z"
       id="path834" />
    <text
       transform="translate(189.32479,207.24466)"
       style="font-size:10px"
       id="text838"><tspan
         id="tspan836">1</tspan></text>
  </g>
  <text
     transform="rotate(24.772347)"
     style="font-size:2.43px"
     id="text844"
     x="257.06537"
     y="95.7267"><tspan
       id="tspan842">5:1</tspan></text>
  <text
     transform="rotate(-65.227525)"
     style="font-size:9px"
     id="text848"
     x="-469.05255"
     y="252.56712"><tspan
       id="tspan846">7:1</tspan></text>
  <text
     transform="rotate(-65.227525)"
     style="font-size:9px"
     id="text852"
     x="-152.89804"
     y="252.56705"><tspan
       id="tspan850">6.:1</tspan></text>
  <text
     transform="rotate(-65.227525)"
     style="font-size:9px"
     id="text856"
     x="-262.27676"
     y="252.56706"><tspan
       id="tspan854">6.:2</tspan></text>
  <text
     transform="rotate(-65.227525)"
     style="font-size:9px"
     id="text860"
     x="-367.66159"
     y="252.56711"><tspan
       id="tspan858">7:2</tspan></text>
  <text
     transform="rotate(114.77248)"
     style="font-size:9px"
     id="text864"
     x="469.05258"
     y="-261.56433"><tspan
       id="tspan862">5:4</tspan></text>
  <text
     transform="rotate(-155.22752)"
     style="font-size:2.43px"
     id="text868"
     x="-257.06573"
     y="-518.23688"><tspan
       id="tspan866">17:1</tspan></text>
  <text
     style="font-size:10px"
     id="text874"
     x="240.53319"
     y="476.06854"><tspan
       id="tspan872">[20]</tspan></text>
  <path
     class="sticker"
     d="m 246.09748,550.29126 9.97487,-0.72571 2.24733,25.37495 -9.94715,1.03868 z m 8.22484,-75.63904 9.92442,1.23719 -8.19087,75.32668 -9.95839,-0.92483 z m -37.15494,70.64845 -9.96348,-0.86791 5.41231,-75.9064 9.98583,0.55453 z m 31.20515,30.67851 -7.12267,7.02085 -30.98109,-30.45823 6.89861,-7.24113 z m 34.88511,-198.61676 8.99783,4.36619 -10.75984,23.09041 -9.13053,-4.0814 z m -10.89254,23.3752 9.6775,2.52402 -17.96827,73.60937 -9.75201,-2.21879 z m -49.76306,68.34327 -9.57712,-2.88153 20.77807,-73.2076 9.66293,2.57927 z m 20.86388,-73.50986 -4.01817,-9.15853 39.50602,-18.07788 4.30387,9.0278 z"
     id="path876" />
  <path
     class="outer"
     d="m 264.24674,475.88941 -8.19087,75.32668 -9.95839,-0.92483 9.97487,-0.72571 2.24733,25.37495 -9.94715,1.03868 -7.12267,7.02085 -30.98109,-30.45823 6.89861,-7.24113 -9.96348,-0.86791 5.41231,-75.9064 9.98583,0.55453 -9.57712,-2.88153 20.77807,-73.2076 9.66293,2.57927 -4.01817,-9.15853 39.50602,-18.07788 4.30387,9.0278 8.99783,4.36619 -10.75984,23.09041 -9.13053,-4.0814 9.6775,2.52402 -17.96827,73.60937 -9.75201,-2.21879 z"
     id="path878" />
  <g
     id="g886">
    <path
       transform="matrix(0.882196,9.961011,-9.961011,0.882196,247.235,563.13522)"
       class="arrow"
       d="M 0,0 1,1 0,0.25 -1,1 Z"
       id="path880" />
    <text
       transform="translate(238.27009,567.92919)"
       style="font-size:10px"
       id="text884"><tspan
         id="tspan882">1</tspan></text>
  </g>
  <text
     transform="rotate(84.938787)"
     style="font-size:9px"
     id="text890"
     x="582.75061"
     y="-198.39124"><tspan
       id="tspan888">8:1</tspan></text>
  <g
     id="g898">
    <path
       transform="matrix(0.711219,-9.974677,9.974677,0.711219,219.88473,507.19077)"
       class="arrow"
       d="M 0,0 1,1 0,0.25 -1,1 Z"
       id="path892" />
    <text
       transform="translate(228.86193,511.83087)"
       style="font-size:10px"
       id="text896"><tspan
         id="tspan894">2</tspan></text>
  </g>
  <text
     transform="rotate(-85.921568)"
     style="font-size:9px"
     id="text902"
     x="-490.26761"
     y="253.60034"><tspan
       id="tspan900">11:2</tspan></text>
  <text
     transform="rotate(-135.48755)"
     style="font-size:9px"
     id="text906"
     x="-559.03247"
     y="-238.40468"><tspan
       id="tspan904">10:2</tspan></text>
  <g
     id="g914">
    <path
       transform="matrix(-4.223793,9.064192,-9.064192,-4.223793,277.81138,389.05003)"
       class="arrow"
       d="M 0,0 1,1 0,0.25 -1,1 Z"
       id="path908" />
    <text
       transform="translate(269.65359,389.2486)"
       style="font-size:10px"
       id="text912"><tspan
         id="tspan910">3</tspan></text>
  </g>
  <text
     transform="rotate(114.98488)"
     style="font-size:9px"
     id="text918"
     x="235.30072"
     y="-417.94025"><tspan
       id="tspan916">8:3</tspan></text>
  <g
     id="g926">
    <path
       transform="matrix(2.730396,-9.620028,9.620028,2.730396,233.03399,432.32596)"
       class="arrow"
       d="M 0,0 1,1 0,0.25 -1,1 Z"
       id="path920" />
    <text
       transform="translate(241.69201,438.7833)"
       style="font-size:10px"
       id="text924"><tspan
         id="tspan922">4</tspan></text>
  </g>
  <text
     transform="rotate(-74.15476)"
     style="font-size:9px"
     id="text930"
     x="-352.27103"
     y="340.4216"><tspan
       id="tspan928">11:4</tspan></text>
  <text
     transform="rotate(-24.588733)"
     style="font-size:9px"
     id="text934"
     x="78.670067"
     y="459.20648"><tspan
       id="tspan932">9.:2</tspan></text>
  <text
     style="font-size:10px"
     id="text828"
     x="108.36609"
     y="377.03485"><tspan
       id="tspan826">[18]</tspan></text>
</svg>

<?xml version='1.0' encoding='UTF-8' standalone='no'?>
    <svg xmlns='http://www.w3.org/2000/svg' xmlns:xlink='http://www.w3.org/1999/xlink' version='1.1'
    width='300.00mm' height='600.00mm' viewBox='0 0 300.00 600.00'>
<style type="text/css">
    path {
        fill: none;
        stroke-linecap: butt;
        stroke-linejoin: bevel;
        stroke-dasharray: none;
    }
    path.outer {
        stroke: #000000;
        stroke-dasharray: none;
        stroke-dashoffset: 0;
        stroke-width: 0.3;
        stroke-opacity: 1.0;
    }
    path.convex {
        stroke: #000000;
        stroke-dasharray: 0.50,1.00;
        stroke-dashoffset:0;
        stroke-width:0.2;
        stroke-opacity: 1.0
    }
    path.concave {
        stroke: #000000;
        stroke-dasharray: 1.00,0.50,0.20,0.50;
        stroke-dashoffset: 0;
        stroke-width: 0.2;
        stroke-opacity: 1.0
    }
    path.freestyle {
        stroke: #000000;
        stroke-dasharray: none;
        stroke-dashoffset: 0;
        stroke-width: 0.2;
        stroke-opacity: 1.0
    }
    path.outer_background {
        stroke: #ffffff;
        stroke-opacity: 1.0;
        stroke-width: 0.5
    }
    path.inner_background {
        stroke: #ffffff;
        stroke-opacity: 1.0;
        stroke-width: 0.2
    }
    path.sticker {
        fill: #e5e5e5;
        stroke: none;
        fill-opacity: 1.0;
    }
    path.arrow {
        fill: #000000;
    }
    text {
        font-style: normal;
        fill: #000000;
        fill-opacity: 1.0;
        stroke: none;
    }
    text, tspan {
        text-anchor:middle;
    }
    </style>
<g>
<g>
<text transform='translate(106.10194224864244 212.50653732568026)' style='font-size:10.00'><tspan>[18] I 18</tspan></text>
<path class='sticker' d=' M 190.645625 193.942065 L 191.814889 191.509540 L 196.638484 193.735535 L 195.546229 196.203615 Z
M 14.013966 576.690982 L 5.000000 572.358171 L 45.679276 484.208967 L 54.824878 488.256480 Z
M 143.140693 296.882029 L 134.126727 292.549248 L 181.500007 189.894552 L 190.645625 193.942065 Z
M 98.982801 392.569254 L 89.968835 388.236458 L 133.995091 292.834516 L 143.140693 296.882029 Z
M 54.824878 488.256480 L 45.810928 483.923676 L 89.837183 388.521741 L 98.982801 392.569254 Z
M 148.041268 299.143608 L 157.055249 303.476389 L 113.028993 398.878301 L 103.883375 394.830788 Z
M 103.883375 394.830788 L 112.897326 399.163599 L 68.871086 494.565534 L 59.725483 490.518014 Z
M 59.725483 490.518014 L 68.739449 494.850810 L 28.060158 583.000029 L 18.914555 578.952502 Z
M 195.546229 196.203615 L 204.560150 200.536425 L 157.186856 303.191121 L 148.041268 299.143608 Z
M 18.914555 578.952502 L 17.745291 581.385042 L 12.921696 579.159032 L 14.013966 576.690982 Z '/>
<path class='outer' d=' M 191.814889 191.509540 L 196.638484 193.735535 L 195.546229 196.203615 L 204.560150 200.536425 L 157.186856 303.191121 L 148.041268 299.143608 L 157.055249 303.476389 L 113.028993 398.878301 L 103.883375 394.830788 L 112.897326 399.163599 L 68.871086 494.565534 L 59.725483 490.518014 L 68.739449 494.850810 L 28.060158 583.000029 L 18.914555 578.952502 L 17.745291 581.385042 L 12.921696 579.159032 L 14.013966 576.690982 L 5.000000 572.358171 L 45.679276 484.208967 L 54.824878 488.256480 L 45.810928 483.923676 L 89.837183 388.521741 L 98.982801 392.569254 L 89.968835 388.236458 L 133.995091 292.834516 L 143.140693 296.882029 L 134.126727 292.549248 L 181.500007 189.894552 L 190.645625 193.942065 Z '/>
<g><path transform='matrix(9.079796 4.190144 -4.190144 9.079796 193.095912 195.072825)' class='arrow' d='M 0 0 L 1 1 L 0 0.25 L -1 1 Z'/><text transform='translate(189.324786 207.244660)' style='font-size:10.00'><tspan>1</tspan></text></g>
<text transform='matrix(0.907980 0.419014 -0.419014 0.907980 193.299462 194.631810)' style='font-size:2.43'><tspan>5:1</tspan></text>
<text transform='matrix(0.419016 -0.907979 0.907979 0.419016 32.785063 531.719501)' style='font-size:9.00'><tspan>7:1</tspan></text>
<text transform='matrix(0.419016 -0.907979 0.907979 0.419016 165.258815 244.657840)' style='font-size:9.00'><tspan>6.:1</tspan></text>
<text transform='matrix(0.419016 -0.907979 0.907979 0.419016 119.427388 343.971427)' style='font-size:9.00'><tspan>6.:2</tspan></text>
<text transform='matrix(0.419016 -0.907979 0.907979 0.419016 75.269480 439.658637)' style='font-size:9.00'><tspan>7:2</tspan></text>
<text transform='matrix(-0.419016 0.907979 -0.907979 -0.419016 40.954371 535.489495)' style='font-size:9.00'><tspan>5:4</tspan></text>
<text transform='matrix(-0.907979 -0.419016 0.419016 -0.907979 16.260718 578.262801)' style='font-size:2.43'><tspan>17:1</tspan></text>
</g>
<g>
<text transform='translate(250.0580409541726 118.33270359784365)' style='font-size:10.00'><tspan>[20] I 20</tspan></text>
<path class='sticker' d=' M 246.097480 550.291265 L 256.072347 549.565549 L 258.319681 574.940498 L 248.372530 575.979183 Z
M 254.322325 474.652219 L 264.246737 475.889410 L 256.055866 551.216091 L 246.097480 550.291265 Z
M 217.167382 545.300673 L 207.203900 544.432755 L 212.616210 468.526359 L 222.602044 469.080891 Z
M 248.372530 575.979183 L 241.249864 583.000029 L 210.268770 552.541803 L 217.167382 545.300673 Z
M 283.257638 377.362425 L 292.255466 381.728615 L 281.495635 404.819022 L 272.365098 400.737624 Z
M 272.365098 400.737624 L 282.042597 403.261642 L 264.074330 476.871009 L 254.322325 474.652219 Z
M 222.602044 469.080891 L 213.024919 466.199364 L 233.802994 392.991762 L 243.465920 395.571033 Z
M 243.465920 395.571033 L 239.447747 386.412497 L 278.953766 368.334617 L 283.257638 377.362425 Z '/>
<path class='outer' d=' M 264.246737 475.889410 L 256.055866 551.216091 L 246.097480 550.291265 L 256.072347 549.565549 L 258.319681 574.940498 L 248.372530 575.979183 L 241.249864 583.000029 L 210.268770 552.541803 L 217.167382 545.300673 L 207.203900 544.432755 L 212.616210 468.526359 L 222.602044 469.080891 L 213.024919 466.199364 L 233.802994 392.991762 L 243.465920 395.571033 L 239.447747 386.412497 L 278.953766 368.334617 L 283.257638 377.362425 L 292.255466 381.728615 L 281.495635 404.819022 L 272.365098 400.737624 L 282.042597 403.261642 L 264.074330 476.871009 L 254.322325 474.652219 Z '/>
<g><path transform='matrix(0.882196 9.961011 -9.961011 0.882196 247.235005 563.135217)' class='arrow' d='M 0 0 L 1 1 L 0 0.25 L -1 1 Z'/><text transform='translate(238.270094 567.929194)' style='font-size:10.00'><tspan>1</tspan></text></g>
<text transform='matrix(0.088220 0.996101 -0.996101 0.088220 249.027972 562.976415)' style='font-size:9.00'><tspan>8:1</tspan></text>
<g><path transform='matrix(0.711219 -9.974677 9.974677 0.711219 219.884728 507.190774)' class='arrow' d='M 0 0 L 1 1 L 0 0.25 L -1 1 Z'/><text transform='translate(228.861933 511.830869)' style='font-size:10.00'><tspan>2</tspan></text></g>
<text transform='matrix(0.071122 -0.997468 0.997468 0.071122 218.089272 507.062758)' style='font-size:9.00'><tspan>11:2</tspan></text>
<text transform='matrix(-0.713098 -0.701064 0.701064 -0.713098 231.508036 561.923499)' style='font-size:9.00'><tspan>10:2</tspan></text>
<g><path transform='matrix(-4.223793 9.064192 -9.064192 -4.223793 277.811383 389.050032)' class='arrow' d='M 0 0 L 1 1 L 0 0.25 L -1 1 Z'/><text transform='translate(269.653593 389.248605)' style='font-size:10.00'><tspan>3</tspan></text></g>
<text transform='matrix(-0.422379 0.906419 -0.906419 -0.422379 279.442911 389.810304)' style='font-size:9.00'><tspan>8:3</tspan></text>
<g><path transform='matrix(2.730396 -9.620028 9.620028 2.730396 233.033990 432.325955)' class='arrow' d='M 0 0 L 1 1 L 0 0.25 L -1 1 Z'/><text transform='translate(241.692011 438.783298)' style='font-size:10.00'><tspan>4</tspan></text></g>
<text transform='matrix(0.273040 -0.962003 0.962003 0.273040 231.302385 431.834484)' style='font-size:9.00'><tspan>11:4</tspan></text>
<text transform='matrix(0.909318 -0.416102 0.416102 0.909318 262.612795 384.829964)' style='font-size:9.00'><tspan>9.:2</tspan></text>
</g>
</g>
</svg>
